!!!COM: Felix Mendelssohn
!!!CNT: Deutsch
!!!TXO: Deutsch
!!!OTL: Wanderlied
!!!LYR: Eichendorff
!!!OPS: Op. 57
!!!ONM: No. 6
!!!ENC: Daniel Alt & Leigh VanHandel
!!!YOR: Sa2mmtliche Lieder fu2r eine Singstimme 
!!!YOR: Neu revidirt von Dr. L. Benda, Ausgabe fu2r mittlere Stimme
!!!YOR: Braunschweig. Henry Litolff's Verlag. Boston and New York: Arthur P. Schmidt.
!!!ODT: 1841/
**kern	**silbe
*staff1	*
=1-	=1
*clefG2	*
*k[b-e-a-]	*
*M2/2	*
2r	.
{4.b-	{Lau-
8b-	-e
=2	=2
4ee-	Luft
4b-	kommt
4.b-	blau
8a-	ge-
=3	=3
4g	-flos-
4f	-sen,
4g	Fru2h-
4a-	-ling,
=4	=4
4.b-	Fru2h-
8b-	-ling
4.bn	soll
8b	es
=5	=5
2cc}	sein!}
{4.cc	{wald-
8bn	-wa2rts
=6	=6
4cc	Ho2r-
4b-	-ner-
4.a-	-klang
8g	ge-
=7	=7
4g	-schos-
4a-	-sen,
4cc	muth
4a-	‘ger
=8	=8
4f	Au-
4b-	-gen
4g	lich-
4e-	-ter
=9	=9
2f}	Schein,}
2r	.
=10	=10
{2.b-	{lich-
4e-	-ter
=11	=11
4f}	Schein;}
4r	.
{4.f	{und
8en	das
=12	=12
4f	Wir-
4f	-ren
4.g	bunt
8d	und
=13	=13
4.e-	bun-
8d	-ter
4.e-	wird
8d	ein
=14	=14
4e-	ma-
4e-	-gisch
4.a-	wil-
8e-	-der
=15	=15
2.f}	Fluss,}
{8.f	{in
16en	die
=16	=16
4f	scho2-
4g	-ne
4a-	Welt
4b-	hin-
=17	=17
4cc	-un-
4a-	-ter
4.cc	lockt
8b-	dich
=18	=18
4.a-	die-
8g	-ses
4.f	Stro-
8en	-mes
=19	=19
2f}	Gruss,}
{4.cc	{lockt
8b-	dich
=20	=20
4.a-	die-
8g	-ses
4.f	Stro-
8e-	-mes
=21	=21
2d}	Gruss.}
4r	.
{8.d	{In
16d	die
=22	=22
4e-	scho2-
4g	-ne
4.cc	Welt
8cc	hin-
=23	=23
4cc	-un-
4b-	-ter
4r	.
8.d	lockt
16d	dich
=24	=24
4e-	die-
4g	-ses
4.cc	Stro-
8cc	-mes
=25	=25
2cc	Gruss,
2b-}	|}
=26	=26
{2a-	{lockt
2g	dich
=27	=27
2f	die-
[2ff	|
=28	=28
4ff]	|
4ee-	|
4dd	|
4cc	-ses
=29	=29
[1b-	Stro-
=30	=30
4b-]	|
4e-	|
4.g	|
8f	-mes
=31	=31
2e-}	Gruss.}
2r	.
=32	=32
{2.b-	{wo
4b-	die
=33	=33
2b-	Fahrt,
2ee-	|
=34	=34
2dd	|
2dd-	|
=35	=35
[1cc	|
=36	=36
2cc]	|
4b-	wo
4a-	die
=37	=37
2.g	Fahrt
4g	zu
=38	=38
4ee-	En-
4b-	|
4a-	-de
4f	|
=39	=39
2e-}	geht.}
2r	.
==	==
*-	*-
